public/icons/bell.svg

<svg width="24" height="24" viewBox="0 0 24 24" fill="none" xmlns="http://www.w3.org/2000/svg">
<mask id="mask0_616_5452" style="mask-type:luminance" maskUnits="userSpaceOnUse" x="3" y="1" width="19" height="18">
<path fill-rule="evenodd" clip-rule="evenodd" d="M3.00012 1H21.497V18.348H3.00012V1Z" fill="white"/>
</mask>
<g mask="url(#mask0_616_5452)">
<path fill-rule="evenodd" clip-rule="evenodd" d="M12.2471 2.5C8.75214 2.5 6.31614 5.238 6.31614 7.695C6.31614 9.774 5.73914 10.735 5.22914 11.583C4.82014 12.264 4.49714 12.802 4.49714 13.971C4.66414 15.857 5.90914 16.848 12.2471 16.848C18.5501 16.848 19.8341 15.813 20.0001 13.906C19.9971 12.802 19.6741 12.264 19.2651 11.583C18.7551 10.735 18.1781 9.774 18.1781 7.695C18.1781 5.238 15.7421 2.5 12.2471 2.5ZM12.2471 18.348C7.57114 18.348 3.34514 18.018 3.00014 14.035C2.99714 12.387 3.50014 11.549 3.94414 10.811C4.39314 10.063 4.81614 9.358 4.81614 7.695C4.81614 4.462 7.80213 1 12.2471 1C16.6921 1 19.6781 4.462 19.6781 7.695C19.6781 9.358 20.1011 10.063 20.5501 10.811C20.9941 11.549 21.4971 12.387 21.4971 13.971C21.1481 18.018 16.9231 18.348 12.2471 18.348Z" fill="black"/>
</g>
<path fill-rule="evenodd" clip-rule="evenodd" d="M12.1984 22.5H12.1964C11.0754 22.499 10.0144 22.005 9.20939 21.108C8.93239 20.801 8.95739 20.326 9.26539 20.05C9.57339 19.772 10.0474 19.797 10.3244 20.106C10.8424 20.683 11.5074 21 12.1974 21H12.1984C12.8914 21 13.5594 20.683 14.0784 20.105C14.3564 19.798 14.8304 19.773 15.1374 20.05C15.4454 20.327 15.4704 20.802 15.1934 21.109C14.3854 22.006 13.3224 22.5 12.1984 22.5Z" fill="black"/>
</svg>

<svg xmlns="http://www.w3.org/2000/svg" width="24" height="24" fill="none"><mask id="a" width="19" height="18" x="3" y="1" maskUnits="userSpaceOnUse" style="mask-type:luminance"><path fill="#fff" fill-rule="evenodd" d="M3 1h18.497v17.348H3V1Z" clip-rule="evenodd"/></mask><g mask="url(#a)"><path fill="#000" fill-rule="evenodd" d="M12.247 2.5c-3.495 0-5.93 2.738-5.93 5.195 0 2.079-.578 3.04-1.088 3.888-.409.681-.732 1.219-.732 2.388.167 1.886 1.412 2.877 7.75 2.877 6.303 0 7.587-1.035 7.753-2.942-.003-1.104-.326-1.642-.735-2.323-.51-.848-1.087-1.809-1.087-3.888 0-2.457-2.436-5.195-5.93-5.195Zm0 15.848c-4.676 0-8.902-.33-9.247-4.313-.003-1.648.5-2.486.944-3.224.45-.748.872-1.453.872-3.116C4.816 4.462 7.802 1 12.247 1s7.431 3.462 7.431 6.695c0 1.663.423 2.368.872 3.116.444.738.947 1.576.947 3.16-.349 4.047-4.574 4.377-9.25 4.377Z" clip-rule="evenodd"/></g><path fill="#000" fill-rule="evenodd" d="M12.198 22.5h-.002c-1.12-.001-2.182-.495-2.987-1.392a.749.749 0 1 1 1.115-1.002c.518.577 1.183.894 1.873.894h.001c.693 0 1.361-.317 1.88-.895a.75.75 0 0 1 1.115 1.004c-.808.897-1.87 1.391-2.995 1.391Z" clip-rule="evenodd"/></svg>
